img/gianni.svg

<svg width="268" height="634" viewBox="0 0 268 634" fill="none" xmlns="http://www.w3.org/2000/svg">
<g style="mix-blend-mode:multiply">
<path d="M267.93 573.34C267.93 577.08 267.71 581.59 267.27 586.87C267.05 592.15 266.72 597.43 266.28 602.71C265.84 607.77 265.4 612.17 264.96 615.91C264.52 619.43 264.19 621.52 263.97 622.18L237.24 622.18C237.9 618.88 238.45 614.15 238.89 607.99C239.33 601.61 239.55 596.44 239.55 592.48C239.55 589.84 239.33 587.31 238.89 584.89C238.45 582.25 237.57 579.94 236.25 577.96C235.15 575.76 233.5 574 231.3 572.68C229.1 571.36 226.24 570.7 222.72 570.7L198.63 570.7C200.17 571.58 202.48 572.79 205.56 574.33C208.64 575.65 211.5 578.18 214.14 581.92C216.56 585.66 217.77 591.6 217.77 599.74C217.77 604.58 217.22 609.09 216.12 613.27C215.02 617.45 212.71 621.08 209.19 624.16C205.67 627.02 200.28 629.33 193.02 631.09C185.76 632.63 175.86 633.4 163.32 633.4L98.97 633.4C90.83 633.4 84.45 632.19 79.83 629.77C74.99 627.13 71.36 623.94 68.94 620.2C66.52 616.46 64.98 612.72 64.32 608.98C63.44 605.02 63 601.61 63 598.75C63 591.93 63.66 586.1 64.98 581.26C66.08 576.42 69.82 572.9 76.2 570.7L64.65 565.42L64.65 519.22L195.33 519.22C202.59 519.22 210.4 519.66 218.76 520.54C227.12 521.2 235.04 523.18 242.52 526.48C250 529.56 256.05 534.84 260.67 542.32C265.51 549.58 267.93 559.92 267.93 573.34ZM187.74 576.31C187.74 575.21 187.52 574.22 187.08 573.34C186.42 572.46 185.32 571.8 183.78 571.36C182.24 570.92 180.26 570.7 177.84 570.7L94.35 570.7C94.13 571.14 94.02 571.58 94.02 572.02C93.8 572.46 93.69 573.01 93.69 573.67C93.47 574.33 93.36 575.21 93.36 576.31C93.36 577.85 94.13 579.17 95.67 580.27C96.99 581.37 99.52 581.92 103.26 581.92L177.51 581.92C179.49 581.92 181.14 581.81 182.46 581.59C183.78 581.37 184.88 581.04 185.76 580.6C186.42 579.94 186.97 579.28 187.41 578.62C187.63 577.96 187.74 577.19 187.74 576.31ZM228 502.844L64.65 502.844L64.65 451.364L228 451.364L228 502.844ZM48.81 477.434C48.81 484.254 46.5 490.084 41.88 494.924C37.04 499.764 31.21 502.294 24.39 502.514C17.79 502.514 12.18 499.984 7.55998 494.924C2.71998 489.864 0.299974 483.924 0.299974 477.104C0.299974 470.064 2.71998 464.124 7.55998 459.284C12.18 454.224 17.9 451.694 24.72 451.694C31.32 451.474 37.04 454.004 41.88 459.284C46.5 464.344 48.81 470.394 48.81 477.434ZM230.64 406.136C230.64 412.296 229.76 417.796 228 422.636C226.46 427.476 223.38 431.326 218.76 434.186C214.14 437.046 207.43 438.476 198.63 438.476L171.9 438.476C162.22 438.476 154.3 435.726 148.14 430.226C141.98 424.506 136.7 414.606 132.3 400.526C130.1 394.146 128.23 389.306 126.69 386.006C124.93 382.706 122.73 380.506 120.09 379.406C117.23 378.086 113.05 377.426 107.55 377.426L96.99 377.426C95.23 377.426 93.8 377.646 92.7 378.086C91.38 378.306 90.39 378.856 89.73 379.736C88.85 380.396 88.41 381.496 88.41 383.036C88.41 385.236 89.84 386.776 92.7 387.656C95.34 388.316 100.51 388.646 108.21 388.646L122.07 388.646L122.07 435.176L103.26 435.176C95.12 435.176 87.97 433.966 81.81 431.546C75.43 429.126 70.48 424.176 66.96 416.696C63.22 409.216 61.35 397.996 61.35 383.036C61.35 368.076 62.45 356.416 64.65 348.056C66.85 339.696 70.81 333.756 76.53 330.236C82.03 326.716 90.06 324.956 100.62 324.956L228 324.956L228 376.436L211.83 376.436C217.33 377.536 221.84 381.056 225.36 386.996C228.88 392.716 230.64 399.096 230.64 406.136ZM197.31 383.036C197.31 380.396 196.1 378.856 193.68 378.416C191.26 377.756 187.3 377.426 181.8 377.426L148.47 377.426C149.35 377.866 150.23 378.856 151.11 380.396C151.77 381.936 152.76 383.256 154.08 384.356C155.62 385.896 157.16 386.996 158.7 387.656C160.24 388.316 162.44 388.646 165.3 388.646L185.43 388.646C187.41 388.646 189.39 388.536 191.37 388.316C193.13 388.096 194.56 387.656 195.66 386.996C196.76 386.116 197.31 384.796 197.31 383.036ZM228 310.129L64.65 310.129L64.65 266.239L86.1 262.279C79.28 260.299 73.67 256.559 69.27 251.059C64.65 245.559 62.34 239.289 62.34 232.249C62.34 222.569 63.99 215.089 67.29 209.809C70.59 204.529 75.43 200.899 81.81 198.919C88.19 196.939 96.11 195.949 105.57 195.949L228 195.949L228 247.429L107.55 247.429C106.01 247.429 104.69 247.539 103.59 247.759C102.49 247.979 101.61 248.309 100.95 248.749C100.07 249.189 99.41 249.739 98.97 250.399C98.53 251.059 98.31 251.939 98.31 253.039C98.31 253.479 98.42 254.139 98.64 255.019C98.64 255.679 98.75 256.339 98.97 256.999C98.97 257.659 99.08 258.209 99.3 258.649L228 258.649L228 310.129ZM228 181.223L64.65 181.223L64.65 137.333L86.1 133.373C79.28 131.393 73.67 127.653 69.27 122.153C64.65 116.653 62.34 110.383 62.34 103.343C62.34 93.6627 63.99 86.1827 67.29 80.9027C70.59 75.6227 75.43 71.9927 81.81 70.0127C88.19 68.0327 96.11 67.0427 105.57 67.0427L228 67.0426L228 118.523L107.55 118.523C106.01 118.523 104.69 118.633 103.59 118.853C102.49 119.073 101.61 119.403 100.95 119.843C100.07 120.283 99.41 120.833 98.97 121.493C98.53 122.153 98.31 123.033 98.31 124.133C98.31 124.573 98.42 125.233 98.64 126.113C98.64 126.773 98.75 127.433 98.97 128.093C98.97 128.753 99.08 129.303 99.3 129.743L228 129.743L228 181.223ZM228 52.3164L64.65 52.3164L64.65 0.836406L228 0.836399L228 52.3164ZM48.81 26.9064C48.81 33.7264 46.5 39.5564 41.88 44.3964C37.04 49.2364 31.21 51.7664 24.39 51.9864C17.79 51.9864 12.18 49.4564 7.55996 44.3964C2.71996 39.3364 0.299955 33.3964 0.299954 26.5764C0.299954 19.5364 2.71996 13.5964 7.55996 8.75641C12.18 3.69641 17.9 1.16641 24.72 1.16641C31.32 0.946408 37.04 3.47641 41.88 8.75641C46.5 13.8164 48.81 19.8664 48.81 26.9064Z" fill="#27F7FF"/>
</g>
</svg>

<svg fill="none" height="634" viewBox="0 0 268 634" width="268" xmlns="http://www.w3.org/2000/svg"><path d="m267.93 573.34c0 3.74-.22 8.25-.66 13.53-.22 5.28-.55 10.56-.99 15.84-.44 5.06-.88 9.46-1.32 13.2-.44 3.52-.77 5.61-.99 6.27h-26.73c.66-3.3 1.21-8.03 1.65-14.19.44-6.38.66-11.55.66-15.51 0-2.64-.22-5.17-.66-7.59-.44-2.64-1.32-4.95-2.64-6.93-1.1-2.2-2.75-3.96-4.95-5.28s-5.06-1.98-8.58-1.98h-24.09c1.54.88 3.85 2.09 6.93 3.63 3.08 1.32 5.94 3.85 8.58 7.59 2.42 3.74 3.63 9.68 3.63 17.82 0 4.84-.55 9.35-1.65 13.53s-3.41 7.81-6.93 10.89c-3.52 2.86-8.91 5.17-16.17 6.93-7.26 1.54-17.16 2.31-29.7 2.31h-64.35c-8.14 0-14.52-1.21-19.14-3.63-4.84-2.64-8.47-5.83-10.89-9.57s-3.96-7.48-4.62-11.22c-.88-3.96-1.32-7.37-1.32-10.23 0-6.82.66-12.65 1.98-17.49 1.1-4.84 4.84-8.36 11.22-10.56l-11.55-5.28v-46.2h130.68c7.26 0 15.07.44 23.43 1.32 8.36.66 16.28 2.64 23.76 5.94 7.48 3.08 13.53 8.36 18.15 15.84 4.84 7.26 7.26 17.6 7.26 31.02zm-80.19 2.97c0-1.1-.22-2.09-.66-2.97-.66-.88-1.76-1.54-3.3-1.98s-3.52-.66-5.94-.66h-83.49c-.22.44-.33.88-.33 1.32-.22.44-.33.99-.33 1.65-.22.66-.33 1.54-.33 2.64 0 1.54.77 2.86 2.31 3.96 1.32 1.1 3.85 1.65 7.59 1.65h74.25c1.98 0 3.63-.11 4.95-.33s2.42-.55 3.3-.99c.66-.66 1.21-1.32 1.65-1.98.22-.66.33-1.43.33-2.31zm40.26-73.466h-163.35v-51.48h163.35zm-179.19-25.41c0 6.82-2.31 12.65-6.93 17.49-4.84 4.84-10.67 7.37-17.49 7.59-6.6 0-12.21-2.53-16.83002-7.59-4.84-5.06-7.260006-11-7.260006-17.82 0-7.04 2.420006-12.98 7.260006-17.82 4.62002-5.06 10.34002-7.59 17.16002-7.59 6.6-.22 12.32 2.31 17.16 7.59 4.62 5.06 6.93 11.11 6.93 18.15zm181.83-71.298c0 6.16-.88 11.66-2.64 16.5-1.54 4.84-4.62 8.69-9.24 11.55s-11.33 4.29-20.13 4.29h-26.73c-9.68 0-17.6-2.75-23.76-8.25-6.16-5.72-11.44-15.62-15.84-29.7-2.2-6.38-4.07-11.22-5.61-14.52-1.76-3.3-3.96-5.5-6.6-6.6-2.86-1.32-7.04-1.98-12.54-1.98h-10.56c-1.76 0-3.19.22-4.29.66-1.32.22-2.31.77-2.97 1.65-.88.66-1.32 1.76-1.32 3.3 0 2.2 1.43 3.74 4.29 4.62 2.64.66 7.81.99 15.51.99h13.86v46.53h-18.81c-8.14 0-15.29-1.21-21.45-3.63-6.38-2.42-11.33-7.37-14.85-14.85-3.74-7.48-5.61-18.7-5.61-33.66s1.1-26.62 3.3-34.98 6.16-14.3 11.88-17.82c5.5-3.52 13.53-5.28 24.09-5.28h127.38v51.48h-16.17c5.5 1.1 10.01 4.62 13.53 10.56 3.52 5.72 5.28 12.1 5.28 19.14zm-33.33-23.1c0-2.64-1.21-4.18-3.63-4.62-2.42-.66-6.38-.99-11.88-.99h-33.33c.88.44 1.76 1.43 2.64 2.97.66 1.54 1.65 2.86 2.97 3.96 1.54 1.54 3.08 2.64 4.62 3.3s3.74.99 6.6.99h20.13c1.98 0 3.96-.11 5.94-.33 1.76-.22 3.19-.66 4.29-1.32 1.1-.88 1.65-2.2 1.65-3.96zm30.69-72.907h-163.35v-43.89l21.45-3.96c-6.82-1.98-12.43-5.72-16.83-11.22-4.62-5.5-6.93-11.77-6.93-18.81 0-9.68 1.65-17.16 4.95-22.44s8.14-8.91 14.52-10.89 14.3-2.97 23.76-2.97h122.43v51.48h-120.45c-1.54 0-2.86.11-3.96.33s-1.98.55-2.64.99c-.88.44-1.54.99-1.98 1.65s-.66 1.54-.66 2.64c0 .44.11 1.1.33 1.98 0 .66.11 1.32.33 1.98 0 .66.11 1.21.33 1.65h128.7zm0-128.906h-163.35v-43.89l21.45-3.96c-6.82-1.98-12.43-5.72-16.83-11.22-4.62-5.5-6.93-11.77-6.93-18.81 0-9.6803 1.65-17.1603 4.95-22.4403s8.14-8.91 14.52-10.89 14.3-2.97 23.76-2.97l122.43-.0001v51.4804h-120.45c-1.54 0-2.86.11-3.96.33s-1.98.55-2.64.99c-.88.44-1.54.99-1.98 1.65s-.66 1.54-.66 2.64c0 .44.11 1.1.33 1.98 0 .66.11 1.32.33 1.98 0 .66.11 1.21.33 1.65h128.7zm0-128.9066h-163.35v-51.479994l163.35-.000007zm-179.19-25.41c0 6.82-2.31 12.65-6.93 17.49-4.84 4.84-10.67 7.37-17.49 7.59-6.6 0-12.21-2.53-16.83004-7.59-4.84-5.06-7.260005-11-7.260006-17.82 0-7.04 2.420006-12.98 7.260006-17.81999 4.62004-5.06 10.34004-7.59 17.16004-7.59 6.6-.220002 12.32 2.31 17.16 7.59 4.62 5.05999 6.93 11.10999 6.93 18.14999z" fill="#27f7ff"/></svg>
